X:1
T:Colors
M:4/4
L:1/8
K:E
 GG GA GG FF| E3 C B,2 B,B,| C E3- E2 EC| B,6 B,B,| C E3- E2 EF| G6 GE|\
 F6 GF| E4- EF EF| G8|
